X:1
T:Come, Oh, Come
T:Come, Oh, Come
T:John Robson Sweney
T:Mrs. Edward Anderson, 1881
T:Public Domain Courtesy of the Cyber Hymnal™
T:Public Domain Courtesy of the Cyber Hymnal™
C:John Robson Sweney
Z:Public Domain
Z:Courtesy of the Cyber Hymnal™
%%score ( 1 2 ) 3
L:1/8
Q:1/4=105
M:3/4
K:F
V:1 treble 
V:2 treble 
V:3 bass 
V:1
 [FA]3 [EG] [FA][GB] | [Ac]4 [Ac]2 | ([Af]2 [ce]2) [Bd]2 | [Ac]4 [FA]2 | [EG]3 [^D^F] [EG][FA] | %5
w: 1.~Come, oh, come with|me where|love * is|beam- ing,|Come, oh, come with|
w: 2.~Come with all your|sins, al-|though * a|moun- tain,|Come un- to the|
w: 3.~None can be too|vile for|love * so|beam- ing,|None can be too|
w: 4.~Come and let us|kneel where|Je- * sus|meets us,|Let us ev- er|
w: 5.~Come, oh, come with|me where|love * is|beam- ing;|Come, oh, come with|
 [GB]4 [Ac]2 | ([ce]2 [Bd]2) [GB]2 | [Ac]4 [FA]2 | [FA]3 [EG] [FA][GB] | [Ac]4 [Ac]2 | %10
w: me where|light * is|stream- ing,|Light and love di-|vine, in|
w: cross, from|whence * a|foun- tain|Flows, di- vine- ly|clear, to|
w: dark for|light * so|stream- ing,|Christ will make you|whole, thro’|
w: stay where|Christ * re-|ceives us,|Safe with- in the|fold no|
w: me where|floods * are|stream- ing|From His wound- ed|side, our|
 ([Af]2 [ce]2) [Bd]2 | [Ac]4 [Ac]2 | [Bd]4 [df]2 | [Ac]4 [FA]2 | ([EG]2 [Bd]2) [Ec]2 | F4 || %16
w: Christ * re-|veal- ing,|God Him-|self to|you * and|me.|
w: heal * the|na- tions;|Come and|wash, and|make * you|clean.|
w: faith * re-|veal- ing|Full sal-|va- tion|un- * to|you.|
w: harm * can|reach us;|Has- ten,|has- ten|to * the|fold.|
w: souls * re-|deem- ing;|Sing with|me re-|deem- * ing|love!|
"^Refrain" [Ac]>[Ac] | [Ac]2 [FA]2 [Ac]>[Ac] | [Ac]2 [FA]2 [Ac]2 | [Ac]2 ([Bd][Ac]) ([GB][FA]) | %20
w: ||||
w: ||||
w: Hal- le-|lu- jah, hal- le-|lu- jah; I|love Thee, * my *|
w: ||||
w: ||||
 [Ec]2 [GB]2 [GB]>[GB] | [GB]2 [EG]2 [GB]>[GB] | [GB]2 [EG]2 [GB]2 | [ce]2 [Bd]2 [GB]2 | %24
w: ||||
w: ||||
w: Sav- ior; Hal- le-|lu- jah, hal- le-|lu- jah; I|trust but in|
w: ||||
w: ||||
 [FA]4 [Ac]>[Ac] | [Ac]2 [FA]2 [Ac]>[Ac] | [Ac]2 [FA]2 [Ac]2 | [Ac]2 ([Bd][Ac]) ([GB][FA]) | %28
w: ||||
w: ||||
w: Thee; Hal- le-|lu- jah, hal- le-|lu- jah; I|love Thee, * my *|
w: ||||
w: ||||
 [Ec]2 [GB]2 [GB]>[GB] | [GB]2 [Ac]2 [Bd]>[Be] | [Af]2 [Ac]2 [FA]2 | [Ec]2 [EB]2 [EG]2 | F4 |] %33
w: |||||
w: |||||
w: Sav- ior; Hal- le-|lu- jah, hal- le-|lu- jah; I|trust but in|Thee.|
w: |||||
w: |||||
V:2
 x6 | x6 | x6 | x6 | x6 | x6 | x6 | x6 | x6 | x6 | x6 | x6 | x6 | x6 | x6 | F4 || x2 | x6 | x6 | %19
 x6 | x6 | x6 | x6 | x6 | x6 | x6 | x6 | x6 | x6 | x6 | x6 | x6 | F4 |] %33
V:3
 (F,2 [A,C]2) [A,C]2 | (F,2 [A,C]2) [A,C]2 | (F,2 [A,C]2) [A,C]2 | (F,2 [A,C]2) [A,C]2 | %4
 (C,2 [G,C]2) [G,C]2 | (C,2 [E,C]2) [E,C]2 | (C,2 [E,C]2) [E,C]2 | (F,2 [A,C]2) [A,C]2 | %8
 (F,2 [A,C]2) [A,C]2 | (F,2 [A,C]2) [A,C]2 | (F,2 [A,C]2) [A,C]2 | (F,2 [A,C]2) [A,C]2 | %12
 (B,,2 [F,B,]2) [F,B,]2 | (F,2 [A,C]2) [A,C]2 | (C,2 C2) [C,B,]2 | [F,A,]4 || [F,F]>[F,F] | %17
 [F,F]2 [F,C]2 [F,F]>[F,F] | [F,F]2 [F,C]2 [F,F]2 | [F,F]2 [F,F]2 [F,C]2 | %20
 [C,C]2 [C,C]2 [C,C]>[C,C] | [C,C]2 [C,C]2 [C,C]>[C,C] | [C,C]2 [C,C]2 [C,C]2 | %23
 [C,C]2 [D,C]2 [E,C]2 | [F,C]4 [F,F]>[F,F] | [F,F]2 [F,C]2 [F,F]>[F,F] | [F,F]2 [F,C]2 [F,F]2 | %27
 [F,F]2 [F,F]2 [F,C]2 | [C,C]2 [C,C]2 [C,C]>[C,C] | [C,C]2 [C,C]2 [C,C]>[C,C] | %30
 [F,C]2 [F,F]2 [F,C]2 | [C,C]2 [C,C]2 [C,B,]2 | [F,A,]4 |] %33

